lib/logo_tmp/nrk-logo-nrk-p3-x-with-bg.svg

<svg width="84" height="24" viewBox="0 0 84 24" fill="none" xmlns="http://www.w3.org/2000/svg">
<rect width="84" height="24" fill="#FFE100"/>
<path d="M79.1471 18L75.0044 11.7406L78.7892 6H76.8958L74.1461 10.5696L71.1298 6H69.049L72.9362 11.8239L68.8614 17.9997H70.7889L73.8226 13.0679L77.0831 17.9997L79.1471 18Z" fill="black"/>
<path d="M52.4809 6H48.7773C48.7773 6 50.8818 9.45485 50.9055 9.49833C50.9849 9.59824 51.0292 9.72144 51.0317 9.84898C51.0342 9.97652 50.9947 10.1013 50.9194 10.2043L48.7773 13.7156H52.4815C52.4815 13.7156 54.2678 10.7947 54.512 10.3892C54.6279 10.2339 54.6897 10.0448 54.6879 9.85105C54.6861 9.65725 54.6209 9.46938 54.5022 9.3162C54.2387 8.8675 54.2381 8.8678 52.4809 6Z" fill="black"/>
<path d="M48.2987 6.00004H45V18.0013H48.2987V6.00004Z" fill="black"/>
<path d="M64.082 7.98821C63.9575 7.77586 62.8551 6 62.8551 6H54.9272L56.6589 8.90479H60.8347L59.1122 11.7285L61.0324 14.9547L59.1792 18.0004H62.5637C63.1078 17.1103 63.9213 15.7335 64.0913 15.4514C64.2079 15.2955 64.2701 15.1056 64.2683 14.9109C64.2665 14.7163 64.2009 14.5276 64.0814 14.3738C63.912 14.0847 63.0056 12.6471 62.464 11.7621C62.464 11.7621 63.9213 9.34727 64.0913 9.06517C64.2079 8.90937 64.27 8.71966 64.2683 8.52512C64.2667 8.33058 64.2012 8.14196 64.082 7.98821Z" fill="black"/>
<path d="M56.4562 12.1185C55.9344 12.9707 55.0618 14.399 54.8983 14.6774C54.7833 14.8255 54.72 15.0072 54.7183 15.1948C54.7165 15.3823 54.7764 15.5652 54.8887 15.7154C55.0525 15.987 55.9318 17.4266 56.4562 18.285C56.9803 17.4274 57.8599 15.9879 58.0234 15.7154C58.1356 15.5652 58.1955 15.3823 58.1938 15.1948C58.1922 15.0073 58.129 14.8255 58.0141 14.6774C57.8506 14.399 56.9777 12.9707 56.4562 12.1185Z" fill="black"/>
<path d="M6.00427 18V6.00109H9.94146V18H6.00427ZM15.2981 7.91078L17.5623 18H13.2534L10.5498 6.00109H12.9664C13.5206 5.9939 14.0583 6.18925 14.4788 6.55039C14.8999 6.89638 15.1892 7.3767 15.2981 7.91078ZM18.1538 18V6.00109H22.091V18H18.1538ZM25.0647 10.5641C24.6405 10.5682 24.223 10.4572 23.8568 10.243C23.4955 10.0341 23.1954 9.73396 22.9865 9.3726C22.7721 9.00633 22.661 8.58876 22.6652 8.16432C22.6604 7.74246 22.7715 7.32738 22.9865 6.96443C23.1976 6.60699 23.4974 6.31009 23.8568 6.10252C24.2231 5.8885 24.6405 5.77751 25.0647 5.78138C25.4865 5.77684 25.9014 5.88793 26.2645 6.10252C26.6203 6.31191 26.9169 6.60856 27.1263 6.96443C27.3411 7.32748 27.4522 7.74249 27.4476 8.16432C27.4515 8.58873 27.3405 9.00623 27.1263 9.3726C26.9191 9.73238 26.6222 10.0323 26.2645 10.243C25.9014 10.458 25.4862 10.5691 25.0642 10.5641H25.0647ZM28.0559 18V6.00109H31.9934V18H28.0559ZM36.978 12.5582C36.9891 12.5699 37.0735 12.7079 37.2314 12.9723C37.3893 13.2367 37.5949 13.5747 37.8482 13.9863C38.1017 14.3977 38.3692 14.8343 38.6506 15.296C38.932 15.7577 39.1969 16.1944 39.4451 16.6058C39.6924 17.0172 39.974 17.4819 40.29 18H35.9641C35.6936 17.5606 35.4484 17.1635 35.2287 16.8086C35.0091 16.4537 34.7756 16.0706 34.5281 15.6594C34.2801 15.2485 34.0349 14.8485 33.7925 14.4595C33.5501 14.0704 33.3418 13.7296 33.1675 13.4371C32.9925 13.1443 32.8713 12.9471 32.8039 12.8455C32.6368 12.5934 32.5379 12.3023 32.517 12.0005C32.5337 11.7109 32.6269 11.431 32.787 11.1891C32.8546 11.0764 32.9786 10.8764 33.1588 10.5891C33.339 10.3018 33.5503 9.96105 33.7925 9.56672C34.0347 9.17239 34.2799 8.7696 34.5281 8.35837C34.7763 7.94715 35.0098 7.56124 35.2287 7.20071C35.4488 6.84055 35.6939 6.44059 35.9641 6.00081H40.29L36.9439 11.4595C36.8404 11.6216 36.782 11.8083 36.7749 12.0005C36.786 12.2023 36.8565 12.3963 36.9774 12.5582H36.978Z" fill="black"/>
</svg>

<svg xmlns="http://www.w3.org/2000/svg" viewBox="0 0 84 24"><path fill="#FFE100" d="M0 0h84v24H0z"/><path fill="#000" d="m79.147 18-4.143-6.26L78.79 6h-1.893l-2.75 4.57L71.13 6h-2.081l3.887 5.824L68.861 18h1.928l3.034-4.932L77.083 18h2.064ZM52.48 6h-3.703s2.105 3.455 2.129 3.498a.582.582 0 0 1 .013.706l-2.142 3.512h3.704s1.787-2.921 2.031-3.327a.886.886 0 0 0-.01-1.073c-.263-.449-.264-.448-2.021-3.316ZM48.299 6H45v12.001h3.299V6ZM64.082 7.988C63.958 7.776 62.855 6 62.855 6h-7.928l1.732 2.905h4.176l-1.723 2.824 1.92 3.226L59.18 18h3.385c.544-.89 1.357-2.267 1.527-2.549a.889.889 0 0 0-.01-1.077c-.169-.29-1.075-1.727-1.617-2.612l1.627-2.697a.888.888 0 0 0-.009-1.077Z"/><path fill="#000" d="M56.456 12.118c-.522.853-1.394 2.281-1.558 2.56a.856.856 0 0 0-.01 1.037l1.568 2.57c.524-.858 1.404-2.297 1.567-2.57a.857.857 0 0 0-.009-1.038 392.8 392.8 0 0 0-1.558-2.559ZM6.004 18V6.001h3.937V18H6.004Zm9.294-10.09L17.562 18h-4.309L10.55 6.001h2.416a2.276 2.276 0 0 1 1.513.55c.42.345.71.826.82 1.36ZM18.154 18V6.001h3.937V18h-3.937Zm6.91-7.436a2.383 2.383 0 0 1-2.4-2.4 2.303 2.303 0 0 1 .323-1.2 2.411 2.411 0 0 1 3.278-.861c.355.209.652.506.861.861.215.363.326.778.322 1.2a2.4 2.4 0 0 1-1.183 2.079 2.302 2.302 0 0 1-1.2.321ZM28.057 18V6.001h3.937V18h-3.937Zm8.922-5.442c.011.012.096.15.253.414.158.265.364.603.617 1.014a315.936 315.936 0 0 1 1.597 2.62c.247.411.529.876.845 1.394h-4.326c-.27-.44-.516-.837-.735-1.191-.22-.355-.453-.738-.7-1.15-.249-.41-.494-.81-.737-1.2-.242-.389-.45-.73-.625-1.022-.175-.293-.296-.49-.363-.591a1.748 1.748 0 0 1-.287-.845c.017-.29.11-.57.27-.812.068-.113.192-.313.372-.6s.391-.628.633-1.022c.243-.395.488-.797.736-1.209l.7-1.157.736-1.2h4.326l-3.346 5.458a1.08 1.08 0 0 0-.17.542c.012.201.082.395.203.557h.001Z"/></svg>
